polaris-icons/icons/newicons/ArrowUpMinor.svg

<svg width="20" height="20" viewBox="0 0 20 20" fill="none" xmlns="http://www.w3.org/2000/svg">
<path fill-rule="evenodd" clip-rule="evenodd" d="M9.99988 17C9.58566 17 9.24988 16.6642 9.24988 16.25L9.24988 5.64091L6.54605 8.514C6.26218 8.81564 5.78752 8.83005 5.48588 8.54617C5.18424 8.2623 5.16983 7.78765 5.4537 7.486L9.4537 3.2356C9.59543 3.085 9.79307 2.9996 9.99988 2.9996C10.2067 2.9996 10.4043 3.085 10.5461 3.2356L14.5461 7.486C14.8299 7.78765 14.8155 8.2623 14.5139 8.54617C14.2122 8.83005 13.7376 8.81564 13.4537 8.514L10.7499 5.64091L10.7499 16.25C10.7499 16.6642 10.4141 17 9.99988 17Z" fill="black"/>
</svg>

<svg viewBox="0 0 20 20" fill="none" xmlns="http://www.w3.org/2000/svg"><path fill-rule="evenodd" clip-rule="evenodd" d="M10 17a.75.75 0 0 1-.75-.75v-10.61l-2.704 2.874a.75.75 0 1 1-1.092-1.028l4-4.25a.75.75 0 0 1 1.092 0l4 4.25a.75.75 0 0 1-1.092 1.028l-2.704-2.873v10.609a.75.75 0 0 1-.75.75Z" fill="#000"/></svg>
